X:8
T:Five In A Bed
T:Dance: Five In A Bed
H:Dance written by James Allwright of Red Stags Morris
H:Tune composed by Andy Anderson of Red Stags Morris
C:Andy Anderson.
M:4/4
L:1/8
K:G
Bc | dgfe d2 c2 | BABc B2 G2 | ABcA B2 A2 | Bcde d2 Bc |
dgfe d2 c2 | BABc B2 G2 | ABcA B2 A2 | G2 F2 G4 |]
FA AA GB BB | FA GF GB BB | FA AA GB BB | FA GF G2 G2 |
FA AA GB BB | FA GF GB BB | FA AA GB BB | FA GF G2 |]
